!! "Pemoengkah" from 'Balinese Ceremonial Music', transcribed for two
!! pianos, four hands, by Colin McPhee; G. Schirmer, Inc. 1940, pp.3-11
!! -- Piano I --  --Piano II --
!! Animato
**kern	**kern	**kern	**kern
*M2/2	*M2/2	*M2/2	*M2/2
=1	=1	=1	=1
{4.c#	{4.cc#	{8.cc#	{8.ccc#
.	.	16b	16bb
.	.	8cc#	8ccc#
8B	8b	8ee}	8eee}
8c#	8cc#	{8.cc#	{8.ccc#
8G#	8g#	.	.
.	.	16b	16bb
4B}	4b}	8cc#	8ccc#
.	.	8ee}	8eee}
=2	=2	=2	=2
8r	8r	{8.cc#	{8.ccc#
{4c#	{4cc#	.	.
.	.	16b	16bb
.	.	8cc#	8ccc#
8B	8b	8ee}	8eee}
8c#	8cc#	{8.cc#	{8.ccc#
8G#	8g#	.	.
.	.	16b	16bb
4B}	4b}	8cc#	8ccc#
.	.	8ee}	8eee}
=3	=3	=3	=3
8r	8r	{8.cc#	{8.ccc#
{4c#	{4cc#	.	.
.	.	16b	16bb
.	.	8cc#	8ccc#
8B	8b	8ee}	8eee}
8c#	8cc#	{8.cc#	{8.ccc#
8G#	8g#	.	.
.	.	16b	16bb
4B}	4b}	8cc#	8ccc#
.	.	8ee}	8eee}
=4	=4	=4	=4
{4.c#	{4.cc#	{8.cc#	{8.ccc#
.	.	16b	16bb
.	.	8cc#	8ccc#
8B	8b	8ee}	8eee}
4G#	4g#	{8.cc#	{8.ccc#
.	.	16b	16bb
4B	4b	8cc#	8ccc#
.	.	8ee}	8eee}
=5	=5	=5	=5
4c#	4cc#	{8.cc#	{8.ccc#
.	.	16b	16b
4e	4ee	8cc#	8ccc#
.	.	8ee	8eee
!! Lento
8.f#	8.ff#	8.cc#	8.ccc#
16e	16ee	16b	16bb
8c#	8cc#	8cc#	8ccc#
8B	8b	8ee}	8eee}
=6	=6	=6	=6
!! Tempo primo
1c#}	1cc#}	{8cc#	{8ccc#
.	.	8ee'}	8eee'}
.	.	{8cc#	{8ccc#
.	.	8ee'}	8eee'}
.	.	{8cc#	{8ccc#
.	.	8ee'}	8eee'}
.	.	{8cc#	{8ccc#
.	.	8ee'}	8eee'}
=7	=7	=7	=7
8r	8r	{8cc#	{8ccc#
{8c# 8g#	{8e 8gg#	8ee'}	8eee'}
8f#	8ff#	{8cc#	{8ccc#
8e	8ee	8ee'}	8eee'}
8f#	8ff#	{8cc#	{8ccc#
8e 8g#	8ee 8gg#	8ee'}	8eee'}
8c# 8f#	8cc# 8ff#	{8cc#	{8ccc#
8e	8ee	8ee'}	8eee'}
=8	=8	=8	=8
2f#}	2ff#}	{8cc#	{8ccc#
.	.	8ee'}	8eee'}
.	.	{8cc#	{8ccc#
.	.	8ee'}	8eee'}
{8e	{8ee	{8cc#	{8ccc#
8c# 8f#	8cc# 8ff#	8ee'}	8eee'}
8B 8e	8b 8ee	{8cc#	{8ccc#
8c#	8cc#	8ee'}	8eee'}
=9	=9	=9	=9
2e}	2ee}	{8cc#	{8ccc#
.	.	8ee'}	8eee'}
.	.	{8cc#	{8ccc#
.	.	8ee'}	8eee'}
{8f#	{8ff#	{8cc#	{8ccc#
8c# 8g#	8cc# 8gg#	8ee'}	8eee'}
8e 8b	8ee 8bb	{8cc#	{8ccc#
8f#	8ff#	8ee'}	8eee'}
=10	=10	=10	=10
1g#}	1gg#}	{8cc#	{8ccc#
.	.	8ee'}	8eee'}
.	.	{8cc#	{8ccc#
.	.	8ee'}	8eee'}
.	.	{8cc#	{8ccc#
.	.	8ee'}	8eee'}
.	.	{8cc#	{8ccc#
.	.	8ee'}	8eee'}
=11	=11	=11	=11
8r	8r	{8cc#	{8ccc#
{8e 8g#	{8ee 8bb	8ee'}	8eee'}
8g#	8gg#	{8cc#	{8ccc#
8f#	8ff#	8ee'}	8eee'}
8e' 8b'	8ee' 8bb'	{8cc#	{8ccc#
8e' 8b'	8ee' 8bb'	8ee'}	8eee'}
8e' 8b'	8ee' 8bb'	{8cc#	{8ccc#
8f#	8ff#	8ee'}	8eee'}
=12	=12	=12	=12
8g#}	8gg#}	{8cc#	{8ccc#
{8e 8b	{8ee 8bb	8ee'}	8eee'}
8g#	8gg#	{8cc#	{8ccc#
8f#	8ff#	8ee'}	8eee'}
8e' 8b'	8ee' 8bb'	{8cc#	{8ccc#
8e' 8b'	8ee' 8bb'	8ee'}	8eee'}
8e' 8b'	8ee' 8bb'	{8cc#	{8ccc#
8f#	8ff#	8ee'}	8eee'}
=13	=13	=13	=13
8g#'}	8gg#'}	{8cc#	{8ccc#
{8g#	{8gg#	8ee'}	8eee'}
8f#	8ff#	{8cc#	{8ccc#
8e	8ee	8ee'}	8eee'}
8g#}	8gg#}	{8cc#	{8ccc#
8r	8r	8ee'}	8eee'}
8r	8r	{8cc#	{8ccc#
{8e 8g#	{8ee 8gg#	8ee'}	8eee'}
=14	=14	=14	=14
1f#}	1ff#}	{8cc#	{8ccc#
.	.	8ee'}	8eee'}
.	.	{8cc#	{8ccc#
.	.	8ee'}	8eee'}
.	.	{8cc#	{8ccc#
.	.	8ee'}	8eee'}
.	.	{8cc#	{8ccc#
.	.	8ee'}	8eee'}
=15	=15	=15	=15
8r	8r	{8cc#	{8ccc#
{8c# 8g#	{8cc# 8gg#	8ee'}	8eee'}
8e	8ee	{8cc#	{8ccc#
8c# 8g#	8cc# 8gg#	8ee'}	8eee'}
8e	8ee	{8cc#	{8ccc#
8f#	8ff#	8ee'}	8eee'}
8c# 8g#	8cc# 8gg#	{8cc#	{8ccc#
8e	8ee	8ee'}	8eee'}
=16	=16	=16	=16
4f#	4ff#	{8cc#	{8ccc#
.	.	8ee'}	8eee'}
4e	4ee	{8cc#	{8ccc#
.	.	8ee'}	8eee'}
2c#}	2cc#}	{8cc#	{8ccc#
.	.	8ee'}	8eee'}
.	.	{8cc#	{8ccc#
.	.	8ee'}	8eee'}
=17	=17	=17	=17
{8e	{8ee	{8cc#	{8ccc#
8f#	8ff#	8ee'}	8eee'}
8g#	8gg#	{8cc#	{8ccc#
8f# 8b	8ff# 8bb	8ee'}	8eee'}
8g#	8gg#	{8cc#	{8ccc#
8f# 8b	8ff# 8bb	8ee'}	8eee'}
8g#	8gg#	{8cc#	{8ccc#
8f#	8ff#	8ee'}	8eee'}
=18	=18	=18	=18
1e}	1ee}	{8cc#	{8ccc#
.	.	8ee'}	8eee'}
.	.	{8cc#	{8ccc#
.	.	8ee'}	8eee'}
.	.	{8cc#	{8ccc#
.	.	8ee'}	8eee'}
.	.	{8cc#	{8ccc#
.	.	8ee'}	8eee'}
=19	=19	=19	=19
8r	8r	{8cc#	{8ccc#
{8b	{8bb	8ee'}	8eee'}
8g#	8gg#	{8cc#	{8ccc#
8f#	8ff#	8ee'}	8eee'}
8g#	8gg#	{8cc#	{8ccc#
8c#	8cc#	8ee'}	8eee'}
8e	8ee	{8cc#	{8ccc#
8f#	8ff#	8ee'}	8eee'}
=20	=20	=20	=20
8e	8ee	{8cc#	{8ccc#
8b	8bb	8ee'}	8eee'}
8g#	8gg#	{8cc#	{8ccc#
8f#	8ff#	8ee'}	8eee'}
8g#	8gg#	{8cc#	{8ccc#
8c#	8cc#	8ee'}	8eee'}
8e	8ee	{8cc#	{8ccc#
8f#	8ff#	8ee'}	8eee'}
=21	=21	=21	=21
8e	8ee	{8cc#	{8ccc#
8g#	8gg#	8ee'}	8eee'}
8f#	8ff#	{8cc#	{8ccc#
8e	8ee	8ee'}	8eee'}
8f#	8ff#	{8cc#	{8ccc#
8B	8b	8ee'}	8eee'}
8c#	8cc#	{8cc#	{8ccc#
8e	8ee	8ee'}	8eee'}
=22	=22	=22	=22
1c#}	1cc#}	{8cc#	{8ccc#
.	.	8ee'}	8eee'}
.	.	{8cc#	{8ccc#
.	.	8ee'}	8eee'}
.	.	{8cc#	{8ccc#
.	.	8ee'}	8eee'}
.	.	{8cc#	{8ccc#
.	.	8ee'}	8eee'}
=23	=23	=23	=23
8r	8r	{8cc#	{8ccc#
{8g#	{8gg#	8ee'}	8eee'}
8f#	8ff#	{8cc#	{8ccc#
8e	8ee	8ee'}	8eee'}
8c# 8f#	8cc# 8ff#	{8cc#	{8ccc#
8B	8b	8ee'}	8eee'}
8c#	8cc#	{8cc#	{8ccc#
8e	8ee	8ee'}	8eee'}
=24	=24	=24	=24
8c#	8cc#	{8cc#	{8ccc#
8g#	8gg#	8ee'}	8eee'}
8f#	8ff#	{8cc#	{8ccc#
8e	8ee	8ee'}	8eee'}
8c# 8f#	8cc# 8ff#	{8cc#	{8ccc#
8B	8b	8ee'}	8eee'}
8c# 8f#	8cc# 8ff#	{8cc#	{8ccc#
8e	8ee	8ee'}	8eee'}
=25	=25	=25	=25
8c#	8cc#	{8cc#	{8ccc#
8b	8bb	8ee'}	8eee'}
8g#	8gg#	{8cc#	{8ccc#
8f#	8ff#	8ee'}	8eee'}
8g#	8gg#	{8cc#	{8ccc#
8c#	8cc#	8ee'}	8eee'}
8e	8ee	{8cc#	{8ccc#
8f#	8ff#	8ee'}	8eee'}
=26	=26	=26	=26
1e}	1ee}	{8cc#	{8ccc#
.	.	8ee'}	8eee'}
.	.	{8cc#	{8ccc#
.	.	8ee'}	8eee'}
.	.	{8cc#	{8ccc#
.	.	8ee'}	8eee'}
.	.	{8cc#	{8ccc#
.	.	8ee'}	8eee'}
=27	=27	=27	=27
8r	8r	{8cc#	{8ccc#
{8b	{8bb	8ee'}	8eee'}
8g#	8gg#	{8cc#	{8ccc#
8f#	8ff#	8ee'}	8eee'}
8g#	8gg#	{8cc#	{8ccc#
8c#	8cc#	8ee'}	8eee'}
8e	8ee	{8cc#	{8ccc#
8f#	8ff#	8ee'}	8eee'}
=28	=28	=28	=28
8e	8ee	{8cc#	{8ccc#
8b	8bb	8ee'}	8eee'}
8g#	8gg#	{8cc#	{8ccc#
8f#	8ff#	8ee'}	8eee'}
8g#	8gg#	{8cc#	{8ccc#
8c#	8cc#	8ee'}	8eee'}
8e	8ee	{8cc#	{8ccc#
8f#	8ff#	8ee'}	8eee'}
=29	=29	=29	=29
8e	8ee	{8cc#	{8ccc#
8g#	8gg#	8ee'}	8eee'}
8c#	8cc#	{8cc#	{8ccc#
8e	8ee	8ee'}	8eee'}
8f#	8ff#	{8cc#	{8ccc#
8B	8b	8ee'}	8eee'}
8c# 8f#	8cc# 8ff#	{8cc#	{8ccc#
8e	8ee	8ee'}	8eee'}
=30	=30	=30	=30
1c#}	1cc#}	{8cc#	{8ccc#
.	.	8ee'}	8eee'}
.	.	{8cc#	{8ccc#
.	.	8ee'}	8eee'}
.	.	{8cc#	{8ccc#
.	.	8ee'}	8eee'}
.	.	{8cc#	{8ccc#
.	.	8ee'}	8eee'}
=31	=31	=31	=31
4r	4r	{8cc#	{8ccc#
.	.	8ee'}	8eee'}
{4e	{4ee	{8cc#	{8ccc#
.	.	8ee'}	8eee'}
4c#	4cc#	{8cc#	{8ccc#
.	.	8ee'}	8eee'}
4B	4b	{8cc#	{8ccc#
.	.	8ee'}	8eee'}
=32	=32	=32	=32
4c#	4cc#	{8cc#	{8ccc#
.	.	8ee'}	8eee'}
4e	4ee	{8cc#	{8ccc#
.	.	8ee'}	8eee'}
4c#	4cc#	{8cc#	{8ccc#
.	.	8ee'}	8eee'}
4B}	4b}	{8cc#	{8ccc#
.	.	8ee'}	8eee'}
=33	=33	=33	=33
{8c#	{8cc#	{8cc#'	{8ccc#'
8e	8ee	8ee}	8eee}
8f#	8ff#	{8cc#'	{8ccc#'
8g#	8gg#	8ee}	8eee}
8f#	8ff#	{8cc#'	{8ccc#'
8c# 8g#	8ee 8gg#	8ee}	8eee}
8f#	8ff#	{8cc#'	{8ccc#'
8e	8ee	8ee}	8eee}
=34	=34	=34	=34
1c#}	1cc#}	{8cc#	{8ccc#
.	.	8ee'}	8eee'}
.	.	{8cc#	{8ccc#
.	.	8ee'}	8eee'}
.	.	{8cc#	{8ccc#
.	.	8ee'}	8eee'}
.	.	{8cc#	{8ccc#
.	.	8ee'}	8eee'}
=35	=35	=35	=35
4r	4r	{8cc#	{8ccc#
.	.	8ee'}	8eee'}
{4e	{4ee	{8cc#	{8ccc#
.	.	8ee'}	8eee'}
4c#	4cc#	{8cc#	{8ccc#
.	.	8ee'}	8eee'}
4B}	4b}	{8cc#	{8ccc#
.	.	8ee'}	8eee'}
=36	=36	=36	=36
4r	4r	{8cc#	{8ccc#
.	.	8ee'}	8eee'}
{4e	{4ee	{8cc#	{8ccc#
.	.	8ee'}	8eee'}
4c#	4cc#	{8cc#	{8ccc#
.	.	8ee'}	8eee'}
4B}	4b}	{8cc#	{8ccc#
.	.	8ee'}	8eee'}
=37	=37	=37	=37
{8c#	{8cc#	{8cc#	{8ccc#
8e	8ee	8ee'}	8eee'}
8f#	8ff#	{8cc#	{8ccc#
8e 8g#	8ee 8gg#	8ee'}	8eee'}
8f#	8ff#	{8cc#	{8ccc#
8c# 8g#	8ee 8gg#	8ee'}	8eee'}
8f#	8ff#	{8cc#	{8ccc#
8e	8ee	8ee'}	8eee'}
=38	=38	=38	=38
2c#	2cc#	{8cc#	{8ccc#
.	.	8ee'}	8eee'}
.	.	{8cc#	{8ccc#
.	.	8ee'}	8eee'}
4..B	4..b	{8cc#	{8ccc#
.	.	8ee'}	8eee'}
.	.	{8cc#	{8ccc#
32c#	32cc#	8ee'}	8eee'}
32B	32b	.	.
=39	=39	=39	=39
2G#	2g#	{8cc#	{8ccc#
.	.	8ee'}	8eee'}
.	.	{8cc#	{8ccc#
.	.	8ee'}	8eee'}
2F#	2f#	{8cc#	{8ccc#
.	.	8ee'}	8eee'}
.	.	{8cc#	{8ccc#
.	.	8ee'}	8eee'}
=40	=40	=40	=40
2G}	2g#}	{8cc#	{8ccc#
.	.	8ee'}	8eee'}
.	.	{8cc#	{8ccc#
.	.	8ee'}	8eee'}
{8B	{8b	{8cc#	{8ccc#
8c#	8cc#	8ee'}	8eee'}
8G#	8g#	{8cc#	{8ccc#
8B	8b	8ee'}	8eee'}
=41	=41	=41	=41
2c#}	2cc#}	{8cc#	{8ccc#
.	.	8ee'}	8eee'}
.	.	{8cc#	{8ccc#
.	.	8ee'}	8eee'}
{8e	{8ee	{8cc#	{8ccc#
8f#	8ff#	8ee'}	8eee'}
8c# 8g#	8c# 8gg#	{8cc#	{8ccc#
8e	8e	8ee'}	8eee'}
=42	=42	=42	=42
4f#	4ff#	{8cc#	{8ccc#
.	.	8ee'}	8eee'}
4e	4ee	{8cc#	{8ccc#
.	.	8ee'}	8eee'}
4c#	4cc#	{8cc#	{8ccc#
.	.	8ee'}	8eee'}
8e	8ee	{8cc#	{8ccc#
8c#	8cc#	8ee'}	8eee'}
=43	=43	=43	=43
4B	4b	{8cc#	{8ccc#
.	.	8ee'}	8eee'}
4c#	4cc#	{8cc#	{8ccc#
.	.	8ee'}	8eee'}
8e	8ee	{8cc#	{8ccc#
8f#	8ff#	8ee'}	8eee'}
4B	4b	{8cc#	{8ccc#
.	.	8ee'}	8eee'}
!! Subito poco piu animato
=44	=44	=44	=44
1c#}	1cc#}	{8cc#	{8ccc#
.	.	8b	8bb
.	.	8g# 8ee	8gg# 8eee
.	.	8cc#	8ccc#
.	.	8b	8bb
.	.	8cc#	8ccc#
.	.	8g# 8ee	8gg# 8eee
.	.	8b}	8bb}
=45	=45	=45	=45
4r	4r	{8cc#	{8ccc#
.	.	8b	8bb
{8e	{8ee	8g# 8ee	8gg# 8eee
8F# 8c#	8f# 8cc#	8cc#	8ccc#
8B	8b	8b	8bb
8F# 8c#	8f# 8cc#	8cc#	8ccc#
8G# 8e	8g# 8ee	8g# 8ee	8gg# 8eee
8B	8b	8b}	8bb}
=46	=46	=46	=46
4.c#	4.c#	{8cc#	{8ccc#
.	.	8b	8bb
.	.	8g# 8ee	8gg# 8ee
8G#' 8e'}	8g#' 8ee'}	8cc#	8ccc#
8r	8r	8b	8bb
{8G# 8e	{8g# 8ee	8cc#	8ccc#
8c#	8cc#	8g# 8ee	8gg# 8eee
8B	8b	8b}	8bb}
=47	=47	=47	=47
4G#	4g#	{8cc#	{8ccc#
.	.	8b	8bb
8B	8b	8g# 8ee	8gg# 8eee
8c#	8cc#	8cc#	8ccc#
8e	8ee	8b	8bb
8c#	8cc#	8cc#	8ccc#
8G# 8e	8g# 8ee	8g# 8ee	8gg# 8eee
8B	8b	8b}	8bb}
=48	=48	=48	=48
1c#}	1cc#}	{8cc#	{8ccc#
.	.	8b	8bb
.	.	8g# 8ee	8gg# 8eee
.	.	8cc#	8ccc#
.	.	8b	8bb
.	.	8cc#	8ccc#
.	.	8g# 8ee	8gg# 8eee
.	.	8b}	8bb}
=49	=49	=49	=49
4r	4r	{8cc#	{8ccc#
.	.	8b	8bb
{8e	{8ee	8g# 8ee	8gg# 8eee
8F# 8c#	8f# 8cc#	8cc#	8ccc#
8B	8b	8b	8bb
8F# 8c#	8f# 8cc#	8cc#	8ccc#
8G# 8e	8g# 8ee	8g# 8ee	8gg# 8eee
8B	8b	8b}	8bb}
=50	=50	=50	=50
4.c#	4.c#	{8cc#	{8ccc#
.	.	8b	8bb
.	.	8g# 8ee	8gg# 8ee
8G#' 8e'}	8g#' 8ee'}	8cc#	8ccc#
8r	8r	8b	8bb
{8G# 8e	{8g# 8ee	8cc#	8ccc#
8c#	8cc#	8g# 8ee	8gg# 8eee
8B	8b	8b}	8bb}
=51	=51	=51	=51
4G#	4g#	{8cc#	{8ccc#
.	.	8b	8bb
8B	8b	8g# 8ee	8gg# 8eee
8c#	8cc#	8cc#	8ccc#
8e	8ee	8b	8bb
8c#	8cc#	8cc#	8ccc#
8G# 8e	8g# 8ee	8g# 8ee	8gg# 8eee
8B	8b	8b}	8bb}
=52	=52	=52	=52
1c#}	1cc#}	{8cc#	{8ccc#
.	.	8b	8bb
.	.	8g# 8ee	8gg# 8eee
.	.	8cc#	8ccc#
.	.	8b	8bb
.	.	8cc#	8ccc#
.	.	8g# 8ee	8gg# 8eee
.	.	8b}	8bb}
=53	=53	=53	=53
4r	4r	{8cc#	{8ccc#
.	.	8b	8bb
{8e	{8ee	8g# 8ee	8gg# 8eee
8B 8e	8b 8b	8cc#	8ccc#
8f#	8ff#	8b	8bb
8B 8e	8b 8ee	8cc#	8ccc#
8c#	8cc#	8g# 8ee	8gg# 8eee
8e	8ee	8b}	8bb}
=54	=54	=54	=54
4.f#	4.ff#	{8cc#	{8ccc#
.	.	8b	8bb
.	.	8g# 8ee	8gg# 8ee
8c# 8f#	8cc# 8ff#	8cc#	8ccc#
8e	8ee	8b	8bb
8c#	8cc#	8cc#	8ccc#
8B	8b	8g# 8ee	8gg# 8eee
8c#	8cc#	8b}	8bb}
=55	=55	=55	=55
2e}	2ee}	{8cc#	{8ccc#
.	.	8b	8bb
.	.	8g# 8ee	8gg# 8eee
.	.	8cc#	8ccc#
{8f#	{8ff#	8b	8bb
8c#	8cc#	8cc#	8ccc#
8e	8ee	8g# 8ee	8gg# 8eee
8f#	8ff#	8b}	8bb}
=56	=56	=56	=56
8c# 8cc#}	2g# 2gg#}	{8cc#	{8ccc#
4c# 4cc#	.	8b	8bb
.	.	8g# 8ee	8gg# 8eee
8c# 8cc#	.	8cc#	8ccc#
{8e	{8ee	8b	8bb
8c# 8f#	8cc# 8ff#	8cc#	8ccc#
8e 8g#	8ee 8gg#	8g# 8ee	8gg# 8eee
8f#	8ff#	8b}	8bb}
=57	=57	=57	=57
8c#' 8cc#'}	4.g# 4.gg#}	{8cc#	{8ccc#
4.c# 4.cc#	.	8b	8bb
.	.	8g# 8ee	8gg# 8eee
.	{8f# 8ff#	8cc#	8ccc#
8e	8ee	8b	8b
8c# 8f#	8cc# 8ff#	8cc#	8ccc#
8e 8g#	8ee 8gg#	8g# 8ee	8gg# 8eee
8f#	8ff#}	8b}	8bb}
=58	=58	=58	=58
8c# 8cc#	{4.g# 4.gg#	{8cc#	{8ccc#
4.c# 4.cc#	.	8b	8bb
.	.	8g# 8ee	8gg# 8eee
.	8f# 8ff#	8cc#	8ccc#
8e	8ee	8b	8b
8B 8f#	8b 8ff#	8cc#	8ccc#
[4c# 4cc#_	8c# 8cc#	8g# 8ee	8gg# 8eee
.	8e 8ee	8b}	8bb}
=59	=59	=59	=59
8c# 8cc#]	8cc# 8ff#	{8cc#	{8ccc#
8e	8ee	8b	8bb
8c#	8cc#	8g# 8ee	8gg# 8eee
4B	4b	8cc#	8ccc#
.	.	8b	8b
8B	8b	8cc#	8ccc#
8c#	8cc#	8g# 8ee	8gg# 8eee
8e	8ee	8b}	8bb}
=60	=60	=60	=60
4.f#	4.ff#}	{8cc#	{8ccc#
.	.	8b	8bb
.	.	8g# 8ee	8gg# 8eee
{8c#	{8cc#	8cc#	8ccc#
8c#	8cc#	8b	8b
8B	8b	8cc#	8ccc#
8c#	8cc#	8g# 8ee	8gg# 8eee
8e}	8ee}	8b}	8bb}
=61	=61	=61	=61
{8f#	{8ff#	{8cc#	{8ccc#
8e	8ee	8b	8bb
8c#	8cc#	8g# 8ee	8gg# 8eee
[8B	[8b	8cc#	8ccc#
8B]	8b]	8b	8b
8B	8b	8cc#	8ccc#
4c#	4cc#	8g# 8ee	8gg# 8eee
.	.	8b}	8bb}
=62	=62	=62	=62
4.f#}	4.ff#}	{8cc#	{8ccc#
.	.	8b	8bb
.	.	8g# 8ee	8gg# 8eee
{8c#	{8cc#	8cc#	8ccc#
8e	8ee	8b	8b
8c#	8c#	8cc#	8ccc#
8B	8B	8g# 8ee	8gg# 8eee
8c#	8cc#	8b}	8bb}
=63	=63	=63	=63
8e	8ee	{8cc#	{8ccc#
8c#	8cc#	8b	8bb
8B	8b	8g# 8ee	8gg# 8eee
8G#	8g#	8cc#	8ccc#
8B	8b	8b	8b
8G#	8g#	8cc#	8ccc#
8B	8b	8g# 8ee	8gg# 8eee
8c#	8cc#	8b}	8bb}
=64	=64	=64	=64
[2e	[2ee	{8cc#	{8ccc#
.	.	8b	8bb
.	.	8g# 8ee	8gg# 8eee
.	.	8cc#	8ccc#
8e}]	8ee}]	8b	8b
{8f#	{8ff#	8cc#	8ccc#
4g#	4gg#	8g# 8ee	8gg# 8eee
.	.	8b}	8bb}
=65	=65	=65	=65
4f#	4ff#	{8cc#	{8ccc#
.	.	8b	8bb
4e	4ee	8g# 8ee	8gg# 8eee
.	.	8cc#	8ccc#
4c#	4cc#	8b	8b
.	.	8cc#	8ccc#
4e	4ee	8g# 8ee	8gg# 8eee
.	.	8b}	8bb}
=66	=66	=66	=66
4f#	4ff#	{8cc#	{8ccc#
.	.	8b	8bb
4e	4ee	8g# 8ee	8gg# 8eee
.	.	8cc#	8ccc#
4c#	4cc#	8b	8b
.	.	8cc#	8ccc#
4e	4ee	8g# 8ee	8gg# 8eee
.	.	8b}	8bb}
=67	=67	=67	=67
4B	4b	{8cc#	{8ccc#
.	.	8b	8bb
4c#	4cc#	8g# 8ee	8gg# 8eee
.	.	8cc#	8ccc#
8e	8ee	8b	8b
8f#	8ff#	8cc#	8ccc#
4B	4b	8g# 8ee	8gg# 8eee
.	.	8b}	8bb}
=68	=68	=68	=68
1c#}	1cc#}	{8cc#	{8ccc#
.	.	8b	8bb
.	.	8g# 8ee	8gg# 8eee
.	.	8cc#	8ccc#
.	.	8b	8b
.	.	8cc#	8ccc#
.	.	8g# 8ee	8gg# 8eee
.	.	8b}	8bb}
=69	=69	=69	=69
2r	2r	{8cc#	{8ccc#
.	.	8ee	8eee
.	.	8b	8bb
.	.	8cc#	8ccc#
{2e	{2ee	8ee	8eee
.	.	8cc#	8ccc#
.	.	8b	8bb
.	.	8ee	8eee
=70	=70	=70	=70
2f#	2ff#	8cc#	8ccc#
.	.	8ee	8eee
.	.	8b	8bb
.	.	8cc#	8ccc#
2c#	2cc#	8ee	8eee
.	.	8cc#	8ccc#
.	.	8b	8bb
.	.	8ee	8eee
=71	=71	=71	=71
2e	2ee	8cc#	8ccc#
.	.	8ee	8eee
.	.	8b	8bb
.	.	8cc#	8ccc#
2f#}	2ff#}	8ee	8eee
.	.	8cc#	8ccc#
.	.	8b	8bb
.	.	8ee}	8eee}
=72	=72	=72	=72
{8g# 8cc#	{8gg# 8ccc#	{8g# 8cc#	{8gg# 8ccc#
8e	8ee	4b 4ee}	4bb 4eee}
8f# 8b	8ff# 8bb	.	.
[8g# 8cc#_	[8gg# 8ccc#_	{8g# 8cc#	{8gg# 8ccc#
8g# 8cc#}]	8gg# 8ccc#}]	8b 8ee	8bb 8eee
{8g# 8cc#	{8gg# 8ccc#	4g 4cc#}	4gg# 4ccc#}
8f# 8b	8ff# 8bb	.	.
8e 8b	8ee 8bb	{8b 8ee	{8bb 8eee
=73	=73	=73	=73
8g# 8cc#	8gg# 8ccc#	8g# 8cc#	8gg# 8ccc#
8e	8e	4b 4ee}	4bb 4eee}
8f# 8b	8ff# 8bb	.	.
[8g# 8cc#_	[8gg# 8ccc#	{8g# 8cc#	{8gg# 8ccc#
8g# 8cc#}]	8gg# 8ccc#}]	8b 8ee	8bb 8eee
{8g# 8cc#	{8gg# 8ccc#	4g# 4cc#}	4gg# 4ccc#}
4f# 4b	4ff# 4bb	.	.
.	.	{8b 8ee	{8bb 8eee
=74	=74	=74	=74
2e	2ee	8cc#	8ccc#
.	.	8ee	8eee
.	.	8b	8bb
.	.	8cc#	8ccc#
2c#	2cc#	8ee	8eee
.	.	8cc#	8ccc#
.	.	8b	8bb
.	.	8ee	8eee
=75	=75	=75	=75
2e	2ee	8cc#	8ccc#
.	.	8ee	8eee
.	.	8b	8bb
.	.	8cc#	8ccc#
2f#}	2ff#}	8ee	8eee
.	.	8cc#	8ccc#
.	.	8b	8bb
.	.	8ee}	8eee}
=76	=76	=76	=76
{8g# 8cc#	{8gg# 8ccc#	{8g# 8cc#	{8gg# 8ccc#
8e	8ee	4b 4ee}	4bb 4eee}
8f# 8b	8ff# 8bb	.	.
[8g# 8cc#_	[8gg# 8ccc#_	{8g# 8cc#	{8gg# 8ccc#
8g# 8cc#}]	8gg# 8ccc#}]	8b 8ee	8bb 8eee
{8g# 8cc#	{8gg# 8ccc#	4g 4cc#}	4gg# 4ccc#}
8f# 8b	8ff# 8bb	.	.
8e 8b	8ee 8bb	{8b 8ee	{8bb 8eee
=77	=77	=77	=77
8g# 8cc#	8gg# 8ccc#	8g# 8cc#	8gg# 8ccc#
8e	8e	4b 4ee}	4bb 4eee}
8f# 8b	8ff# 8bb	.	.
[8g# 8cc#_	[8gg# 8ccc#	{8g# 8cc#	{8gg# 8ccc#
8g# 8cc#}]	8gg# 8ccc#}]	8b 8ee	8bb 8eee
{8g# 8cc#	{8gg# 8ccc#	4g# 4cc#}	4gg# 4ccc#}
4f# 4b	4ff# 4bb	.	.
.	.	{8b 8ee	{8bb 8eee
=78	=78	=78	=78
2e	2ee	8cc#	8ccc#
.	.	8ee	8eee
.	.	8b	8bb
.	.	8cc#	8ccc#
2c#	2cc#	8ee	8eee
.	.	8cc#	8ccc#
.	.	8b	8bb
.	.	8ee	8eee
=79	=79	=79	=79
2e	2ee	8cc#	8ccc#
.	.	8ee	8eee
.	.	8b	8bb
.	.	8cc#	8ccc#
2f#	2ff#	8ee	8eee
.	.	8cc#	8ccc#
.	.	8b	8bb
.	.	8ee	8eee
=80	=80	=80	=80
2g#	2gg#	8cc#	8ccc#
.	.	8ee	8eee
.	.	8b	8bb
.	.	8cc#	8ccc#
2e	2ee	8ee	8eee
.	.	8cc#	8ccc#
.	.	8b	8bb
.	.	8ee	8eee
=81	=81	=81	=81
2g#	2gg#	8cc#	8ccc#
.	.	8ee	8eee
.	.	8b	8bb
.	.	8cc#	8ccc#
2f#}	2ff#}	8ee	8eee
.	.	8cc#	8ccc#
.	.	8b	8bb
.	.	8ee	8eee
=82	=82	=82	=82
{8e	{8ee	8cc#	8ccc#
8c#	8cc#	8ee	8eee
4B	4b	8b	8bb
.	.	8cc#	8ccc#
4c#	4cc#	8ee	8eee
.	.	8cc#	8ccc#
4e	4ee	8b	8bb
.	.	8ee	8eee
=83	=83	=83	=83
4f#	4ff#	8cc#	8ccc#
.	.	8ee	8eee
8g#	8gg#	8b	8bb
8e	8ee	8cc#	8ccc#
4f#	4ff#	8ee	8eee
.	.	8cc#	8ccc#
4e	4ee	8b	8bb
.	.	8ee	8eee
=84	=84	=84	=84
1c#}	1cc#}	8cc#	8ccc#
.	.	8ee	8eee
.	.	8b	8bb
.	.	8cc#	8ccc#
.	.	8ee	8eee
.	.	8cc#	8ccc#
.	.	8b	8bb
.	.	8ee	8eee
=85	=85	=85	=85
8r	8r	8cc#	8ccc#
{8G# 8e	{8g# 8ee	8ee	8eee
8B 8f#	8b 8ff#	8b	8bb
8c#	8cc#	8cc#	8ccc#
8e	8e	8ee	8eee
8B 8f#	8b 8f#	8cc#	8ccc#
8e	8ee	8b	8bb
8c#	8cc#	8ee}	8eee}
=86	=86	=86	=86
8B	8b	8cc#	8ccc#
8g#	8gg#	8ee	8eee
8c# 8f#	8cc# 8ff#	8b	8bb
8e	8ee	8cc#	8ccc#
8f#	8ff#	8ee	8eee
8g#	8gg#	8cc#	8ccc#
8f#	8ff#	8b	8bb
8e	8ee	8ee	8eee
=87	=87	=87	=87
8f#	8ff#	8cc#	8ccc#
8g#	8gg#	8ee	8eee
8f#	8ff#	8b	8bb
8e	8ee	8cc#	8ccc#
8f#	8ff#	8ee	8eee
8g#	8gg#	8cc#	8ccc#
8f#	8ff#	8b	8bb
8e	8ee	8ee	8eee
=88	=88	=88	=88
1c#}	1cc#}	8cc#	8ccc#
.	.	8ee	8eee
.	.	8b	8bb
.	.	8cc#	8ccc#
.	.	8ee	8eee
.	.	8cc#	8ccc#
.	.	8b	8bb
.	.	8ee	8eee
=89	=89	=89	=89
8r	8r	8cc#	8ccc#
{8G# 8e	{8g# 8ee	8ee	8eee
8B 8f#	8b 8ff#	8b	8bb
8c#	8cc#	8cc#	8ccc#
8e	8ee	8ee	8eee
8B 8f#	8b 8ff#	8cc#	8ccc#
8e	8ee	8b	8bb
8c#	8cc#	8ee	8eee
=90	=90	=90	=90
8B	8b	8cc#	8ccc#
8g#	8gg#	8ee	8eee
8c# 8f#	8cc# 8ff#	8b	8bb
8e	8ee	8cc#	8ccc#
8f#	8ff#	8ee	8eee
8g#	8gg#	8cc#	8ccc#
8f#	8ff#	8b	8bb
8e	8ee	8ee	8eee
=91	=91	=91	=91
8f#	8ff#	8cc#	8ccc#
8g#	8gg#	8ee	8eee
8f#	8ff#	8b	8bb
8e	8ee	8cc#	8ccc#
8f#	8ff#	8ee	8eee
8g#	8gg#	8cc#	8ccc#
8f#	8ff#	8b	8bb
8e}	8ee}	8ee	8eee
=92	=92	=92	=92
{2c#	{2cc#	8cc#	8ccc#
.	.	8ee	8eee
.	.	8b	8bb
.	.	8cc#	8ccc#
2B	2b	8ee	8eee
.	.	8cc#	8ccc#
.	.	8b	8bb
.	.	8ee	8eee
=93	=93	=93	=93
2G#	2g#	8cc#	8ccc#
.	.	8ee	8eee
.	.	8b	8bb
.	.	8cc#	8ccc#
2F#}	2f#}	8ee	8eee
.	.	8cc#	8ccc#
.	.	8b	8bb
.	.	8ee	8eee
=94	=94	=94	=94
{2c#	{2cc#	8cc#	8ccc#
.	.	8ee	8eee
.	.	8b	8bb
.	.	8cc#	8ccc#
2B	2b	8ee	8eee
.	.	8cc#	8ccc#
.	.	8b	8bb
.	.	8ee	8eee
=95	=95	=95	=95
2G#	2g#	8cc#	8ccc#
.	.	8ee	8eee
.	.	8b	8bb
.	.	8cc#	8ccc#
2F#}	2f#}	8ee	8eee
.	.	8cc#	8ccc#
.	.	8b	8bb
.	.	8ee	8eee
=96	=96	=96	=96
{2c#	{2cc#	8cc#	8ccc#
.	.	8ee	8eee
.	.	8b	8bb
.	.	8cc#	8ccc#
2G#	2g#	8ee	8eee
.	.	8cc#	8ccc#
.	.	8b	8bb
.	.	8ee	8eee
=97	=97	=97	=97
2B	2b	8cc#	8ccc#
.	.	8ee	8eee
.	.	8b	8bb
.	.	8cc#	8ccc#
2c#	2cc#	8ee	8eee
.	.	8cc#	8ccc#
.	.	8b	8bb
.	.	8ee	8eee
=98	=98	=98	=98
2e	2ee	8cc#	8ccc#
.	.	8ee	8eee
.	.	8b	8bb
.	.	8cc#	8ccc#
2B	2b	8ee	8eee
.	.	8cc#	8ccc#
.	.	8b	8bb
.	.	8ee	8eee
=99	=99	=99	=99
2c#	2cc#	8cc#	8ccc#
.	.	8ee	8eee
.	.	8b	8bb
.	.	8cc#	8ccc#
2e}	2ee}	8ee	8eee
.	.	8cc#	8ccc#
.	.	8b	8bb
.	.	8ee	8eee
=100	=100	=100	=100
{8f#	{8ff#	{8cc#	{8ccc#
8g#	8gg#	8ee	8eee
8f#	8ff#	8b	8bb
8e	8ee	8cc#	8ccc#
8f#	8ff#	8ee	8eee
8g#	8gg#	8cc#	8ccc#
8f#	8ff#	8b	8bb
8e	8ee	8ee	8eee
=101	=101	=101	=101
8f#	8ff#	8cc#	8ccc#
8g#	8gg#	8ee	8eee
8f#	8ff#	8b	8bb
8e	8ee	8cc#	8ccc#
8f#	8ff#	8ee	8eee
8g#	8gg#	8cc#	8ccc#
8f#	8ff#	8b	8bb
8e	8ee	8ee	8eee
=102	=102	=102	=102
[1c#	[1cc#	[1cc#	[1ccc#
=103	=103	=103	=103
4c#}]	4cc#}]	4cc#}]	4ccc#}]
4r	4r	4r	4r
2r	2r	2r	2r
====	====	====	====
*-	*-	*-	*-
